svgs/thin/bed-front.svg

<svg xmlns="http://www.w3.org/2000/svg" viewBox="0 0 512 512"><!--! Font Awesome Pro 6.6.0 by @fontawesome - https://fontawesome.com License - https://fontawesome.com/license (Commercial License) Copyright 2024 Fonticons, Inc. --><path d="M48 88c0-22.1 17.9-40 40-40l336 0c22.1 0 40 17.9 40 40l0 56.8c-10.2-10.4-24.3-16.8-40-16.8l-120 0c-20.4 0-38.2 10.9-48 27.1c-9.8-16.3-27.6-27.1-48-27.1L88 128c-15.7 0-29.8 6.4-40 16.8L48 88zm0 96c0-22.1 17.9-40 40-40l120 0c22.1 0 40 17.9 40 40l0 40L72 224c-8.4 0-16.5 1.4-24 4.1L48 184zM32 236.1C12.7 249 0 271 0 296L0 408l0 64c0 4.4 3.6 8 8 8s8-3.6 8-8l0-56 480 0 0 56c0 4.4 3.6 8 8 8s8-3.6 8-8l0-64 0-112c0-25-12.7-47-32-59.9l0-52.1 0-96c0-30.9-25.1-56-56-56L88 32C57.1 32 32 57.1 32 88l0 96 0 52.1zM264 184c0-22.1 17.9-40 40-40l120 0c22.1 0 40 17.9 40 40l0 44.1c-7.5-2.7-15.6-4.1-24-4.1l-176 0 0-40zm0 56l176 0c30.9 0 56 25.1 56 56l0 104L16 400l0-104c0-30.9 25.1-56 56-56l176 0 16 0z"/></svg>

<svg xmlns="http://www.w3.org/2000/svg" viewBox="0 0 512 512"><!--! Font Awesome Pro 6.4.2 by @fontawesome - https://fontawesome.com License - https://fontawesome.com/license (Commercial License) Copyright 2023 Fonticons, Inc. --><path d="M48 88c0-22.1 17.9-40 40-40H424c22.1 0 40 17.9 40 40v56.8c-10.2-10.4-24.3-16.8-40-16.8H304c-20.4 0-38.2 10.9-48 27.1c-9.8-16.3-27.6-27.1-48-27.1H88c-15.7 0-29.8 6.4-40 16.8V88zm0 96c0-22.1 17.9-40 40-40H208c22.1 0 40 17.9 40 40v40H72c-8.4 0-16.5 1.4-24 4.1V184zM32 236.1C12.7 249 0 271 0 296V408v64c0 4.4 3.6 8 8 8s8-3.6 8-8V416H496v56c0 4.4 3.6 8 8 8s8-3.6 8-8V408 296c0-25-12.7-47-32-59.9V184 88c0-30.9-25.1-56-56-56H88C57.1 32 32 57.1 32 88v96 52.1zM264 184c0-22.1 17.9-40 40-40H424c22.1 0 40 17.9 40 40v44.1c-7.5-2.7-15.6-4.1-24-4.1H264V184zm0 56H440c30.9 0 56 25.1 56 56V400H16V296c0-30.9 25.1-56 56-56H248h16z"/></svg>
